T: Maggie's Lilt
M: 4/4
L: 1/8
K: Dmaj
AFAd f2 f2 | AFAd f2 ef | gfed c2 cd | (3efe (3dcB A2 FG |AFAd f2 f2 | AFAd f2 ef | gfed cABc | d2 f2 d2 :|fgaf d2 d2 | fgaf d2 de | gfed c2 cd | (3efe (3dcB A2 de |fgaf d2 d2 | fgaf d2 ef | gfed cABc | d2 f2 d2 :|
